app/dist/common/images/constellium-nv.svg

<svg height="18" width="18" xmlns="http://www.w3.org/2000/svg"><path d="m0 0h18v18h-18z" fill="#f0f3fa"/><path d="m6.538 9.524 2.462 2.476h-5zm2.462-3.9-2.452-.033-1.919 1.963 1.91 1.97 2.461-2.598v-1.301zm0 3.376h5.003l-5.003 4.678zm0-3.375v-2.625l2.595 2.625z" fill="#ced500"/><path d="m9 12-2.462-2.476 2.462-2.602zm0-6.375v-2.625l-2.488 2.625z" fill="#8cbd22"/><path d="m9 12v3l-2.73-3zm0-6.375v3.375h5l-3.62-3.375zm1.797 6.375h2.203v-2.065z" fill="#00a6e6"/></svg>

<!-- by TradingView --><svg width="18" height="18" xmlns="http://www.w3.org/2000/svg"><path fill="#F0F3FA" d="M0 0h18v18H0z"/><path d="M6.538 9.524L9 12H4l2.538-2.476zM9 5.624l-2.452-.033-1.919 1.963 1.91 1.97L9 6.926V5.625zM9 9h5.003L9 13.678V9zm0-3.375V3l2.595 2.625H9z" fill="#CED500"/><path d="M9 12L6.538 9.524 9 6.922V12zm0-6.375V3L6.512 5.625H9z" fill="#8CBD22"/><path d="M9 12v3l-2.73-3H9zm0-6.375V9h5L10.38 5.625H9zM10.797 12H13V9.935L10.797 12z" fill="#00A6E6"/></svg>
